public/images/multiplatform/hero/server.svg

<svg width="48" height="48" viewBox="0 0 48 48" fill="none" xmlns="http://www.w3.org/2000/svg">
    <path d="M13.5 30H34.5C36.9825 30 39 27.9825 39 25.5V12C39 9.5175 36.9825 7.5 34.5 7.5H13.5C11.0175 7.5 9 9.5175 9 12V25.5C9 27.9825 11.0175 30 13.5 30ZM12 12C12 11.1712 12.6712 10.5 13.5 10.5H34.5C35.3288 10.5 36 11.1712 36 12V25.5C36 26.3288 35.3288 27 34.5 27H13.5C12.6712 27 12 26.3288 12 25.5V12Z" fill="white"/>
    <path d="M28.74 36C28.23 33.855 26.3025 32.25 24 32.25C21.6975 32.25 19.77 33.855 19.26 36H6V39H19.5C20.235 40.7588 21.975 42 24 42C26.025 42 27.7612 40.7588 28.5 39H42V36H28.74ZM25.875 37.125C25.875 38.16 25.035 39 24 39C22.965 39 22.125 38.16 22.125 37.125C22.125 36.7013 22.2713 36.315 22.5113 36C22.8525 35.5462 23.3925 35.25 24 35.25C24.6075 35.25 25.1475 35.5462 25.4887 36C25.7287 36.315 25.875 36.7013 25.875 37.125Z" fill="white"/>
</svg>

<svg xmlns="http://www.w3.org/2000/svg" width="48" height="48" fill="none" viewBox="0 0 48 48">
    <path fill="#fff" d="M13.5 30h21c2.483 0 4.5-2.017 4.5-4.5V12c0-2.482-2.017-4.5-4.5-4.5h-21A4.504 4.504 0 0 0 9 12v13.5c0 2.483 2.018 4.5 4.5 4.5M12 12a1.5 1.5 0 0 1 1.5-1.5h21A1.5 1.5 0 0 1 36 12v13.5a1.5 1.5 0 0 1-1.5 1.5h-21a1.5 1.5 0 0 1-1.5-1.5zM28.74 36A4.88 4.88 0 0 0 24 32.25 4.88 4.88 0 0 0 19.26 36H6v3h13.5a4.88 4.88 0 0 0 4.5 3 4.89 4.89 0 0 0 4.5-3H42v-3zm-2.865 1.125a1.876 1.876 0 0 1-3.75 0c0-.424.146-.81.386-1.125.341-.454.881-.75 1.489-.75s1.148.296 1.489.75c.24.315.386.701.386 1.125"/>
</svg>
